source/img/sprite/icon-rating.svg

<svg width="30" height="32" viewBox="0 0 30 32" fill="none" xmlns="http://www.w3.org/2000/svg">
<mask id="path-1-inside-1" fill="white">
<path fill-rule="evenodd" clip-rule="evenodd" d="M2 0C0.895431 0 0 0.895431 0 2V25C0 26.1046 0.89543 27 2 27H9.89038L13.5858 30.6954C14.3668 31.4765 15.6332 31.4765 16.4142 30.6954L20.1096 27H28C29.1046 27 30 26.1046 30 25V2C30 0.895431 29.1046 0 28 0H2Z"/>
</mask>
<path d="M9.89038 27L11.3046 25.5858L10.7188 25H9.89038V27ZM13.5858 30.6954L12.1716 32.1096H12.1716L13.5858 30.6954ZM16.4142 30.6954L15 29.2812H15L16.4142 30.6954ZM20.1096 27V25H19.2812L18.6954 25.5858L20.1096 27ZM2 2V2V-2C-0.209139 -2 -2 -0.209138 -2 2H2ZM2 25V2H-2V25H2ZM2 25H2H-2C-2 27.2091 -0.209139 29 2 29V25ZM9.89038 25H2V29H9.89038V25ZM15 29.2812L11.3046 25.5858L8.47616 28.4142L12.1716 32.1096L15 29.2812ZM15 29.2812H15L12.1716 32.1096C13.7337 33.6717 16.2663 33.6717 17.8284 32.1096L15 29.2812ZM18.6954 25.5858L15 29.2812L17.8284 32.1096L21.5238 28.4142L18.6954 25.5858ZM28 25H20.1096V29H28V25ZM28 25V29C30.2091 29 32 27.2091 32 25H28ZM28 2V25H32V2H28ZM28 2H32C32 -0.209138 30.2091 -2 28 -2V2ZM2 2H28V-2H2V2Z" fill="#49CCC4" mask="url(#path-1-inside-1)"/>
<path d="M18.8585 16.2323L19.8442 16.0632L18.8585 16.2323L19.5497 20.2622L15.9307 18.3595C15.348 18.0532 14.652 18.0532 14.0693 18.3595L10.4503 20.2622L11.1415 16.2323C11.2527 15.5835 11.0376 14.9215 10.5663 14.462L7.6384 11.6081L11.6846 11.0201C12.336 10.9255 12.8992 10.5163 13.1905 9.92604L15 6.25955L16.8095 9.92604C17.1008 10.5163 17.664 10.9255 18.3154 11.0201L22.3616 11.6081L19.4337 14.462C18.9624 14.9215 18.7473 15.5835 18.8585 16.2323Z" stroke="#49CCC4" stroke-width="2"/>
</svg>

<svg width="30" height="34" fill="none" xmlns="http://www.w3.org/2000/svg"><mask fill="#fff"><path fill-rule="evenodd" clip-rule="evenodd" d="M2 0a2 2 0 00-2 2v23a2 2 0 002 2h7.89l3.696 3.695a2 2 0 002.828 0L20.11 27H28a2 2 0 002-2V2a2 2 0 00-2-2H2z"/></mask><path d="M9.89 27l1.415-1.414-.586-.586H9.89v2zm3.696 3.695l-1.414 1.415 1.414-1.415zm2.828 0L15 29.281l1.414 1.414zM20.11 27v-2h-.829l-.586.586L20.11 27zM2 2v-4a4 4 0 00-4 4h4zm0 23V2h-4v23h4zm0 0h-4a4 4 0 004 4v-4zm7.89 0H2v4h7.89v-4zM15 29.281l-3.695-3.695-2.829 2.828 3.696 3.696L15 29.28zm0 0l-2.828 2.829a4 4 0 005.656 0L15 29.28zm3.695-3.695L15 29.28l2.828 2.829 3.696-3.696-2.829-2.828zM28 25h-7.89v4H28v-4zm0 0v4a4 4 0 004-4h-4zm0-23v23h4V2h-4zm0 0h4a4 4 0 00-4-4v4zM2 2h26v-4H2v4z" fill="#49CCC4" /><path d="M15 6.26l1.81 3.666a2 2 0 001.505 1.094l4.047.588-2.928 2.854a2 2 0 00-.576 1.77l.692 4.03-3.62-1.902a2 2 0 00-1.86 0l-3.62 1.902.692-4.03a2 2 0 00-.576-1.77l-2.928-2.854 4.047-.588a2 2 0 001.505-1.094L15 6.26z" stroke="#49CCC4" stroke-width="2"/></svg>
